images/icons/social/ok.svg

<svg width="36" height="36" viewBox="0 0 36 36" fill="none" xmlns="http://www.w3.org/2000/svg">
  <path
    d="M11.2247 27.0648L14.9399 23.3424C13.6943 22.9968 12.5063 22.4568 11.4263 21.7008C10.7783 21.2472 10.6127 20.3544 11.0663 19.6992C11.3471 19.296 11.7935 19.08 12.2543 19.08C12.5351 19.08 12.8231 19.1664 13.0751 19.3392C14.5223 20.3472 16.2287 20.88 17.9999 20.88C19.7783 20.88 21.4847 20.3472 22.9391 19.332C23.1839 19.1592 23.4719 19.0728 23.7599 19.0728C24.2135 19.0728 24.6599 19.2888 24.9407 19.692C25.3943 20.34 25.2359 21.24 24.5807 21.6936C23.5007 22.4496 22.3127 22.9968 21.0599 23.3424L24.7751 27.0648C25.3439 27.6264 25.3439 28.5336 24.7751 29.0952C24.4943 29.376 24.1271 29.52 23.7599 29.52C23.3927 29.52 23.0255 29.376 22.7447 29.0952L17.9999 24.3576L13.2551 29.0952C12.9743 29.376 12.6071 29.52 12.2399 29.52C11.8727 29.52 11.5055 29.376 11.2247 29.0952C10.6559 28.5336 10.6559 27.6264 11.2247 27.0648Z"
    fill="white"/>
  <path fill-rule="evenodd" clip-rule="evenodd"
        d="M12.2399 12.24C12.2399 15.4224 14.8175 18 17.9999 18C21.1823 18 23.7599 15.4224 23.7599 12.24C23.7599 9.0576 21.1823 6.48 17.9999 6.48C14.8175 6.48 12.2399 9.0576 12.2399 12.24ZM15.9636 10.2035C16.5038 9.66341 17.2363 9.35999 18.0001 9.35999C18.7639 9.35999 19.4965 9.66341 20.0366 10.2035C20.5767 10.7436 20.8801 11.4762 20.8801 12.24C20.8801 13.0038 20.5767 13.7363 20.0366 14.2765C19.4965 14.8166 18.7639 15.12 18.0001 15.12C17.2363 15.12 16.5038 14.8166 15.9636 14.2765C15.4235 13.7363 15.1201 13.0038 15.1201 12.24C15.1201 11.4762 15.4235 10.7436 15.9636 10.2035Z"
        fill="white"/>
</svg>

<svg width="36" height="36" fill="none" xmlns="http://www.w3.org/2000/svg"><path d="m11.22 27.06 3.72-3.72a11.43 11.43 0 0 1-3.51-1.64 1.44 1.44 0 0 1 1.65-2.36 8.58 8.58 0 0 0 9.86 0c.24-.18.53-.27.82-.27a1.44 1.44 0 0 1 .82 2.62 11.4 11.4 0 0 1-3.52 1.65l3.72 3.72c.56.57.56 1.47 0 2.04a1.44 1.44 0 0 1-2.04 0L18 24.36l-4.74 4.74a1.44 1.44 0 1 1-2.04-2.04Z" fill="#fff"/><path fill-rule="evenodd" clip-rule="evenodd" d="M12.24 12.24a5.76 5.76 0 1 0 11.52 0 5.76 5.76 0 0 0-11.52 0Zm3.72-2.04a2.88 2.88 0 1 1 4.08 4.08 2.88 2.88 0 0 1-4.08-4.08Z" fill="#fff"/></svg>
